svg/clinical_fe_outline.svg

<svg width="48" height="48" viewBox="0 0 48 48" fill="none" xmlns="http://www.w3.org/2000/svg">
<path d="M24.0288 4.97266C22.6288 4.97416 21.4768 6.07414 21.4098 7.47262H19.3118C18.7228 7.47262 18.2498 7.94782 18.2498 8.53701V8.77531H11.8609C10.8319 8.77531 10.002 9.6031 10.002 10.6329V41.1675C10.002 42.1975 10.8319 43.0265 11.8609 43.0265H36.1386C37.1676 43.0265 37.9956 42.1975 37.9956 41.1675V10.6329C37.9956 9.6031 37.1676 8.77531 36.1386 8.77531H29.7477V8.53701C29.7477 7.94782 29.2747 7.47262 28.6857 7.47262H26.6477C26.5817 6.07414 25.4288 4.97416 24.0288 4.97266ZM24.0308 5.48435C24.5944 5.48435 25.1349 5.70823 25.5334 6.10674C25.9319 6.50525 26.1558 7.04574 26.1558 7.60932C26.1558 7.88838 26.1008 8.1647 25.994 8.42252C25.8872 8.68033 25.7307 8.91458 25.5334 9.11191C25.336 9.30923 25.1018 9.46575 24.844 9.57254C24.5862 9.67933 24.3098 9.7343 24.0308 9.7343C23.4672 9.7343 22.9267 9.51042 22.5282 9.11191C22.1297 8.7134 21.9058 8.1729 21.9058 7.60932C21.9058 7.04574 22.1297 6.50525 22.5282 6.10674C22.9267 5.70823 23.4672 5.48435 24.0308 5.48435ZM19.3068 7.98232H21.4158C21.5055 8.6122 21.8193 9.18864 22.2996 9.60588C22.7799 10.0231 23.3945 10.2532 24.0308 10.2539C24.667 10.2532 25.2817 10.0231 25.762 9.60588C26.2423 9.18864 26.5561 8.6122 26.6457 7.98232H28.6927C28.9927 7.98232 29.2337 8.22342 29.2337 8.52331V8.98821V9.6347V11.3029H18.7658V9.6347V8.98821V8.52331C18.7658 8.22342 19.0068 7.98232 19.3068 7.98232ZM12.5179 9.289H16.8299H18.2498L18.2519 11.8159H19.3138H21.7788H26.2208H28.6877H29.7497L29.7477 9.289H30.7247L35.6716 9.2948C37.3096 9.2968 37.4746 10.2429 37.4746 11.1619L37.4766 40.9705C37.4766 41.8895 36.9576 42.5115 35.6906 42.5115H12.1929C11.2739 42.5115 10.5179 41.9055 10.5179 40.9855V10.8459C10.5179 9.7231 11.0709 9.289 12.5179 9.289ZM17.1369 13.5348C17.0089 13.5378 16.8829 13.6368 16.8869 13.8258V16.1148H14.5959C14.2029 16.1288 14.1769 16.6208 14.5979 16.6288H16.8869V18.9178C16.9119 19.3688 17.4029 19.3678 17.3999 18.9158V16.6288H19.6888C20.1268 16.6208 20.0958 16.1218 19.6878 16.1148H17.3999V13.8238C17.3959 13.6248 17.2649 13.5318 17.1369 13.5348ZM33.7787 16.8378C33.3307 16.8208 32.8947 17.0678 32.6927 17.5018L25.9158 32.0756C25.7798 32.3676 25.7788 32.6836 25.8828 32.9626C25.8788 32.9796 25.8688 32.9926 25.8668 33.0096L25.3648 37.3335C25.3628 37.3565 25.3698 37.3775 25.3708 37.3995C25.3728 37.4515 25.3808 37.5006 25.3998 37.5466C25.4028 37.5566 25.4108 37.5636 25.4138 37.5736C25.4328 37.6096 25.4558 37.6405 25.4838 37.6695C25.4908 37.6765 25.4928 37.6865 25.4998 37.6925C25.5108 37.7025 25.5258 37.7065 25.5388 37.7165C25.5578 37.7295 25.5758 37.7455 25.5978 37.7555C25.6348 37.7755 25.6728 37.7865 25.7128 37.7925C25.7188 37.7935 25.7258 37.7985 25.7318 37.7985C25.7358 37.7985 25.7388 37.7965 25.7418 37.7985C25.7918 37.8045 25.8408 37.7985 25.8908 37.7865C25.8918 37.7865 25.8948 37.7855 25.8958 37.7845L25.8978 37.7825C25.9458 37.7695 25.9898 37.7455 26.0308 37.7125C26.0328 37.7105 26.0368 37.7125 26.0388 37.7105C26.0398 37.7095 26.0408 37.7075 26.0428 37.7065C26.0588 37.6935 26.0748 37.6865 26.0878 37.6735L29.0527 34.4726C29.0577 34.4656 29.0587 34.4596 29.0637 34.4566C29.3477 34.3586 29.5927 34.1496 29.7297 33.8546L36.5076 19.2848C36.7766 18.7068 36.5266 18.0248 35.9486 17.7558L34.2227 16.9428C34.0777 16.8758 33.9287 16.8428 33.7787 16.8378ZM33.7207 17.2598C33.8047 17.2618 33.8917 17.2828 33.9767 17.3238L34.2337 17.4408L35.7986 18.1798C36.1886 18.3838 36.2236 18.8138 36.1086 19.0758L35.3416 20.7148L32.3437 19.3118L33.1167 17.6618C33.2307 17.4078 33.4667 17.2518 33.7207 17.2598ZM32.1537 19.7248L35.1516 21.1268L34.8436 21.7847L31.8477 20.3928L32.1537 19.7248ZM31.6617 20.7908L31.8007 20.8588L34.6596 22.1857L32.4237 26.9957L29.4937 33.3066L29.3707 33.5606C29.2687 33.7806 28.7457 33.9306 28.5247 33.8276L26.6517 32.9426C26.2248 32.7406 26.1767 32.6726 26.3377 32.2416L26.4587 31.9856L31.6617 20.7908ZM13.9379 24.8607L13.9389 25.3747H27.6307L27.8687 24.8607H13.9379ZM13.9379 28.8607L13.9389 29.3746H25.7678L26.0058 28.8607H13.9379ZM13.9379 32.8606L13.9389 33.3746H23.9038L24.1428 32.8606H13.9379ZM26.3027 33.2746L28.5757 34.3706L25.8298 37.2696L26.3027 33.2746ZM13.9379 36.8606L13.9389 37.3745H22.0388L22.2788 36.8606H13.9379Z" fill="#333333"/>
</svg>

<?xml version="1.0" encoding="UTF-8" standalone="no"?>
<!-- Created with Inkscape (http://www.inkscape.org/) -->
<svg id="svg8" xmlns:rdf="http://www.w3.org/1999/02/22-rdf-syntax-ns#" xmlns="http://www.w3.org/2000/svg" xmlns:osb="http://www.openswatchbook.org/uri/2009/osb" height="48" width="48" version="1.1" xmlns:cc="http://creativecommons.org/ns#" viewBox="0 0 12.7 12.7" xmlns:dc="http://purl.org/dc/elements/1.1/">
 <title id="title4753">UIO-icon</title>
 <metadata id="metadata5">
  <rdf:RDF>
   <cc:Work rdf:about="">
    <dc:format>image/svg+xml</dc:format>
    <dc:type rdf:resource="http://purl.org/dc/dcmitype/StillImage"/>
    <dc:title>UIO-icon</dc:title>
    <dc:creator>
     <cc:Agent>
      <dc:title>Joaquín Urbano</dc:title>
     </cc:Agent>
    </dc:creator>
    <dc:rights>
     <cc:Agent>
      <dc:title>GPL</dc:title>
     </cc:Agent>
    </dc:rights>
   </cc:Work>
  </rdf:RDF>
 </metadata>
 <g id="layer1" transform="translate(0,-284.3)">
  <path id="rect858-7" d="m24.029 4.9727c-1.4 0.0015-2.552 1.1015-2.619 2.5h-2.098c-0.589 0-1.062 0.4752-1.062 1.0644v0.2383h-6.389c-1.029 0-1.859 0.8278-1.859 1.8576v30.535c0 1.03 0.83 1.859 1.859 1.859h24.278c1.029 0 1.857-0.829 1.857-1.859v-30.535c0-1.0298-0.828-1.8576-1.857-1.8576h-6.391v-0.2383c0-0.5892-0.473-1.0644-1.062-1.0644h-2.038c-0.066-1.3985-1.219-2.4985-2.619-2.5zm0.002 0.5117a2.125 2.125 0 0 1 2.125 2.125 2.125 2.125 0 0 1 -2.125 2.125 2.125 2.125 0 0 1 -2.125 -2.125 2.125 2.125 0 0 1 2.125 -2.125zm-4.724 2.498h2.109a2.6443 2.6443 0 0 0 2.615 2.2716 2.6443 2.6443 0 0 0 2.615 -2.2716h2.047c0.3 0 0.541 0.2411 0.541 0.541v0.4649 0.6465 1.6682h-10.468v-1.6682-0.6465-0.4649c0-0.2999 0.241-0.541 0.541-0.541zm-6.789 1.3067h4.312 1.42l0.002 2.5269h1.062 2.465 4.442 2.467 1.062l-0.002-2.5269h0.977l4.947 0.0058c1.638 0.002 1.803 0.9481 1.803 1.8671l0.002 29.809c0 0.919-0.519 1.541-1.786 1.541h-23.498c-0.919 0-1.675-0.606-1.675-1.526v-30.14c0-1.1228 0.553-1.5569 2-1.5569zm4.619 4.2459c-0.128 0.003-0.254 0.102-0.25 0.291v2.289h-2.291c-0.393 0.014-0.419 0.506 0.002 0.514h2.289v2.289c0.025 0.451 0.516 0.45 0.513-0.002v-2.287h2.289c0.438-0.008 0.407-0.507-0.001-0.514h-2.288v-2.291c-0.004-0.199-0.135-0.292-0.263-0.289zm16.642 3.303c-0.448-0.017-0.884 0.23-1.086 0.664l-6.777 14.574c-0.136 0.292-0.137 0.608-0.033 0.887-0.004 0.017-0.014 0.03-0.016 0.047l-0.502 4.324c-0.002 0.023 0.005 0.044 0.006 0.066 0.002 0.052 0.01 0.101 0.029 0.147 0.003 0.01 0.011 0.017 0.014 0.027 0.019 0.036 0.042 0.067 0.07 0.096 0.007 0.007 0.009 0.017 0.016 0.023 0.011 0.01 0.026 0.014 0.039 0.024 0.019 0.013 0.037 0.029 0.059 0.039 0.037 0.02 0.075 0.031 0.115 0.037 0.006 0.001 0.013 0.006 0.019 0.006 0.004 0 0.007-0.002 0.01 0 0.05 0.006 0.099 0 0.149-0.012 0.001 0 0.004-0.001 0.005-0.002l0.002-0.002c0.048-0.013 0.092-0.037 0.133-0.07 0.002-0.002 0.006 0 0.008-0.002 0.001-0.001 0.002-0.003 0.004-0.004 0.016-0.013 0.032-0.02 0.045-0.033l2.965-3.201c0.005-0.007 0.006-0.013 0.011-0.016 0.284-0.098 0.529-0.307 0.666-0.602l6.778-14.57c0.269-0.578 0.019-1.26-0.559-1.529l-1.726-0.813c-0.145-0.067-0.294-0.1-0.444-0.105zm-0.058 0.422c0.084 0.002 0.171 0.023 0.256 0.064l0.257 0.117 1.565 0.739c0.39 0.204 0.425 0.634 0.31 0.896l-0.767 1.639-2.998-1.403 0.773-1.65c0.114-0.254 0.35-0.41 0.604-0.402zm-1.567 2.465l2.998 1.402-0.308 0.658-2.996-1.392 0.306-0.668zm-0.492 1.066l0.139 0.068 2.859 1.327-2.236 4.81-2.93 6.311-0.123 0.254c-0.102 0.22-0.625 0.37-0.846 0.267l-1.873-0.885c-0.427-0.202-0.475-0.27-0.314-0.701l0.121-0.256 5.203-11.195zm-17.724 4.07l0.001 0.514h13.692l0.238-0.514h-13.931zm0 4l0.001 0.514h11.829l0.238-0.514h-12.068zm0 4l0.001 0.514h9.965l0.239-0.514h-10.205zm12.365 0.414l2.273 1.096-2.746 2.899 0.473-3.995zm-12.365 3.586l0.001 0.514h8.1l0.24-0.514h-8.341z" transform="matrix(.26458 0 0 .26458 0 284.3)" fill="#333"/>
 </g>
</svg>
